src/assets/img/icons/duotone-icons/Electric/Fan.svg

<?xml version="1.0" encoding="UTF-8"?>
<svg width="24px" height="24px" viewBox="0 0 24 24" version="1.1" xmlns="http://www.w3.org/2000/svg" xmlns:xlink="http://www.w3.org/1999/xlink">
    <!-- Generator: Sketch 52.2 (67145) - http://www.bohemiancoding.com/sketch -->
    <title>Stockholm-icons / Electric / Fan</title>
    <desc>Created with Sketch.</desc>
    <g id="Stockholm-icons-/-Electric-/-Fan" stroke="none" stroke-width="1" fill="none" fill-rule="evenodd">
        <polygon id="bound" points="0 0 24 0 24 24 0 24"></polygon>
        <path d="M23.3743557,18.8971143 C22.131715,21.0494311 18.4102262,21.2272253 15.0621778,19.2942286 C11.7141295,17.361232 10.0073593,14.0494311 11.25,11.8971143 C12.4926407,9.74479751 16.2141295,9.56700338 19.5621778,11.5 C22.9102262,13.4329966 24.6169963,16.7447975 23.3743557,18.8971143 Z" id="Oval-32-Copy-3" fill="#335EEA" opacity="0.3"></path>
        <ellipse id="Oval-32-Copy-5" fill="#335EEA" opacity="0.3" transform="translate(12.500000, 9.000000) rotate(-180.000000) translate(-12.500000, -9.000000) " cx="12.5" cy="9" rx="4.5" ry="7"></ellipse>
        <path d="M1.25,18.8971143 C0.00735931295,16.7447975 1.71412946,13.4329966 5.06217783,11.5 C8.41022619,9.56700338 12.131715,9.74479751 13.3743557,11.8971143 C14.6169963,14.0494311 12.9102262,17.361232 9.56217783,19.2942286 C6.21412946,21.2272253 2.49264069,21.0494311 1.25,18.8971143 Z" id="Oval-32-Copy-4" fill="#335EEA" opacity="0.3"></path>
    </g>
</svg>

<svg width="24" height="24" viewBox="0 0 24 24" xmlns="http://www.w3.org/2000/svg"><g fill="none" fill-rule="evenodd"><path d="M0 0h24v24H0z"/><path d="M23.374 18.897c-1.242 2.152-4.964 2.33-8.312.397-3.348-1.933-5.055-5.245-3.812-7.397 1.243-2.152 4.964-2.33 8.312-.397 3.348 1.933 5.055 5.245 3.812 7.397z" fill="#335EEA" opacity=".3"/><ellipse fill="#335EEA" opacity=".3" transform="rotate(-180 12.5 9)" cx="12.5" cy="9" rx="4.5" ry="7"/><path d="M1.25 18.897c-1.243-2.152.464-5.464 3.812-7.397 3.348-1.933 7.07-1.755 8.312.397 1.243 2.152-.464 5.464-3.812 7.397-3.348 1.933-7.07 1.755-8.312-.397z" fill="#335EEA" opacity=".3"/></g></svg>
